X: 9091
T: Da Scallowa Lasses
R: reel
M: 4/4
K: Adorian
|:eaag egdB|cdef gagd|eaag egdB|cABG A4:|
|:BE E2 c2 cA|dcde gfed|eaag egdB|cABG A4:|

